packages/foundations/assets/icons/functional/images/business & payment/shopping_basket_disabled.svg

<svg xmlns="http://www.w3.org/2000/svg" width="32" height="32" fill="none"><path fill="#1A1C1F" fill-rule="evenodd" d="M14.987 2.561c-1.244.171-2.614.716-3.6 1.432A8.13 8.13 0 0 0 8.063 10l-.036.533-2.214.027-2.213.027-.337.182c-.603.328-.99.902-1.061 1.579-.022.209.243 1.689 1.21 6.766l1.238 6.499-1.172 1.18c-1.26 1.269-1.329 1.368-1.277 1.828.071.629.754 1.04 1.356.817.226-.085 24.908-24.77 25.034-25.038.055-.117.1-.297.1-.4 0-.414-.331-.846-.733-.958-.249-.069-.308-.068-.571.003-.18.049-.526.37-2.193 2.031l-1.98 1.973-.225-.418c-.667-1.237-1.75-2.343-3.016-3.076-.756-.438-1.531-.726-2.48-.921-.473-.097-2.005-.142-2.506-.073m2.026 2.03c.826.125 1.791.537 2.514 1.074.909.675 1.777 1.818 2.072 2.728l.067.207-.979.98-.979.98H10.08l.001-.387c.001-.498.151-1.22.381-1.826.907-2.395 3.281-3.961 5.805-3.829.22.011.556.044.746.073m7.361 6.954-.986.988h2.199c1.24 0 2.2.021 2.2.048 0 .101-2.4 13.004-2.454 13.193-.072.251-.344.566-.57.661-.143.059-1.509.072-7.762.072H9.412L8.4 27.52l-1.012 1.013h8.693c9.549-.001 9.042.016 9.677-.323a3.08 3.08 0 0 0 1.387-1.578c.062-.165.689-3.362 1.395-7.106 1.08-5.732 1.278-6.861 1.259-7.158-.045-.671-.437-1.259-1.066-1.601l-.333-.18-1.52-.016-1.52-.015zm-12.321 6.668c-3.124 3.124-5.685 5.662-5.691 5.64s-.481-2.512-1.054-5.533-1.056-5.559-1.073-5.64l-.03-.147h13.528z"/></svg>

<svg width="32" height="32" viewBox="0 0 32 32" fill="none" xmlns="http://www.w3.org/2000/svg"><path d="M14.987 2.561 C 13.743 2.732,12.373 3.277,11.387 3.993 C 9.452 5.397,8.222 7.620,8.063 10.000 L 8.027 10.533 5.813 10.560 L 3.600 10.587 3.263 10.769 C 2.660 11.097,2.273 11.671,2.202 12.348 C 2.180 12.557,2.445 14.037,3.412 19.114 L 4.650 25.613 3.478 26.793 C 2.218 28.062,2.149 28.161,2.201 28.621 C 2.272 29.250,2.955 29.661,3.557 29.438 C 3.783 29.353,28.465 4.668,28.591 4.400 C 28.646 4.283,28.691 4.103,28.691 4.000 C 28.691 3.586,28.360 3.154,27.958 3.042 C 27.709 2.973,27.650 2.974,27.387 3.045 C 27.207 3.094,26.861 3.415,25.194 5.076 L 23.214 7.049 22.989 6.631 C 22.322 5.394,21.239 4.288,19.973 3.555 C 19.217 3.117,18.442 2.829,17.493 2.634 C 17.020 2.537,15.488 2.492,14.987 2.561 M17.013 4.591 C 17.839 4.716,18.804 5.128,19.527 5.665 C 20.436 6.340,21.304 7.483,21.599 8.393 L 21.666 8.600 20.687 9.580 L 19.708 10.560 14.894 10.560 L 10.080 10.560 10.081 10.173 C 10.082 9.675,10.232 8.953,10.462 8.347 C 11.369 5.952,13.743 4.386,16.267 4.518 C 16.487 4.529,16.823 4.562,17.013 4.591 M24.374 11.545 L 23.388 12.533 25.587 12.533 C 26.827 12.533,27.787 12.554,27.787 12.581 C 27.787 12.682,25.387 25.585,25.333 25.774 C 25.261 26.025,24.989 26.340,24.763 26.435 C 24.620 26.494,23.254 26.507,17.001 26.507 L 9.412 26.507 8.400 27.520 L 7.388 28.533 16.081 28.533 C 25.630 28.532,25.123 28.549,25.758 28.210 C 26.375 27.881,26.902 27.282,27.145 26.632 C 27.207 26.467,27.834 23.270,28.540 19.526 C 29.620 13.794,29.818 12.665,29.799 12.368 C 29.754 11.697,29.362 11.109,28.733 10.767 L 28.400 10.587 26.880 10.571 L 25.360 10.556 24.374 11.545 M12.053 18.213 C 8.929 21.337,6.368 23.875,6.362 23.853 C 6.356 23.831,5.881 21.341,5.308 18.320 C 4.735 15.299,4.252 12.761,4.235 12.680 L 4.205 12.533 10.969 12.533 L 17.733 12.533 12.053 18.213 " fill="#1A1C1F" stroke="none" fill-rule="evenodd"></path></svg>
